packages/heroicons/src/interstate/outline/arrow-up-on-square.svg

<svg width="16" height="17" viewBox="0 0 16 17" fill="none" xmlns="http://www.w3.org/2000/svg">
<g clip-path="url(#clip0_1243_4862)">
<path d="M5.77926 6.11952H4.66893C3.74909 6.11952 3.00342 6.86519 3.00342 7.78502V14.4471C3.00342 15.3669 3.74909 16.1126 4.66893 16.1126H11.331C12.2508 16.1126 12.9965 15.3669 12.9965 14.4471V7.78502C12.9965 6.86519 12.2508 6.11952 11.331 6.11952H10.2206M10.2206 3.89884L7.99994 1.67816M7.99994 1.67816L5.77926 3.89884M7.99994 1.67816L7.99994 11.116" stroke="black" stroke-width="1.5" stroke-linecap="round" stroke-linejoin="round"/>
</g>
<defs>
<clipPath id="clip0_1243_4862">
<rect width="16" height="16" fill="white" transform="translate(0 0.895386)"/>
</clipPath>
</defs>
</svg>

<svg viewBox="0 0 16 17">
  <g clip-path="url(#a)">
    <path stroke="currentColor" stroke-linecap="round" stroke-linejoin="round" stroke-width="1.5" d="M5.78 6.121H4.668c-.92 0-1.666.746-1.666 1.666v6.662c0 .92.746 1.665 1.666 1.665h6.662c.92 0 1.665-.745 1.665-1.665V7.787c0-.92-.745-1.666-1.665-1.666h-1.11m0-2.22L8 1.68m0 0L5.78 3.9M8 1.68v9.438"/>
  </g>
  <defs>
    <clipPath id="a">
      <path d="M0 0h16v16H0z" transform="translate(0 .897)"/>
    </clipPath>
  </defs>
</svg>
